source/img/vector/traktor-10-vector.svg

<svg width="299" height="170" viewBox="0 0 299 170" fill="none" xmlns="http://www.w3.org/2000/svg">
<path d="M101.624 125.442C101.624 132.088 96.2361 137.476 89.5903 137.476C82.9446 137.476 77.5571 132.088 77.5571 125.442C77.5571 118.797 82.9446 113.409 89.5903 113.409C96.2361 113.409 101.624 118.797 101.624 125.442Z" fill="#A0A1A2"/>
<path fill-rule="evenodd" clip-rule="evenodd" d="M89.2243 153.52C104.53 153.52 116.937 141.112 116.937 125.807C116.937 110.501 104.53 98.0941 89.2243 98.0941C73.919 98.0941 61.5115 110.501 61.5115 125.807C61.5115 141.112 73.919 153.52 89.2243 153.52ZM89.2243 169.564C113.391 169.564 132.981 149.973 132.981 125.807C132.981 101.641 113.391 82.0498 89.2243 82.0498C65.058 82.0498 45.4673 101.641 45.4673 125.807C45.4673 149.973 65.058 169.564 89.2243 169.564Z" fill="#A0A1A2"/>
<path d="M269.945 129.985C269.945 135.947 265.112 140.779 259.15 140.779C253.189 140.779 248.356 135.947 248.356 129.985C248.356 124.023 253.189 119.19 259.15 119.19C265.112 119.19 269.945 124.023 269.945 129.985Z" fill="#A0A1A2"/>
<path fill-rule="evenodd" clip-rule="evenodd" d="M258.82 155.17C272.549 155.17 283.68 144.04 283.68 130.31C283.68 116.58 272.549 105.45 258.82 105.45C245.09 105.45 233.96 116.58 233.96 130.31C233.96 144.04 245.09 155.17 258.82 155.17ZM258.82 169.563C280.498 169.563 298.072 151.989 298.072 130.31C298.072 108.632 280.498 91.0576 258.82 91.0576C237.141 91.0576 219.567 108.632 219.567 130.31C219.567 151.989 237.141 169.563 258.82 169.563Z" fill="#A0A1A2"/>
<path d="M54.7701 82.5303L57.1831 84.139H65.5485C61.8162 84.6538 54.0193 94.542 50.5874 99.4218H44.6352C42.576 99.4218 41.7395 98.1348 41.5786 97.4913L49.4613 84.4607L54.7701 82.5303Z" fill="#A0A1A2"/>
<path d="M47.3651 100.55H39.9651L37.3911 104.25H45.1129L47.3651 100.55Z" fill="#A0A1A2"/>
<path d="M105.101 24.4551L113.948 26.7073L114.431 28.1551L105.905 25.9029L104.779 27.029L109.122 41.0248H107.514L103.009 26.7073L105.101 24.4551Z" fill="#A0A1A2"/>
<path fill-rule="evenodd" clip-rule="evenodd" d="M0.875158 115.348L10.3666 112.292V105.535L11.3318 104.891L11.0806 102.871L12.7796 104.57L13.584 105.696L19.2145 104.57L24.5233 93.3087L9.24048 75.9346H7.79263L8.43612 79.9564H10.8492L22.4319 93.3087L18.571 102.639L14.2275 103.444L12.7796 101.031H10.8518L7.63176 75.1302L6.34479 73.1998L7.63176 68.6954C21.8957 63.333 62.6498 52.6082 111.555 52.6082V60.6518H114.129L111.555 33.1428L108.016 21.7209V17.3774H169.629V16.4122H108.016V11.7468C115.362 10.7816 137.97 9.4303 169.629 11.7468V5.63376L167.055 3.7033V0.807617H181.373V3.7033L178.477 5.63376V11.7468H185.073V15.6078H178.477V52.6082H179.764V55.9865L188.451 63.0649V75.1302L188.072 75.6129H152.577H122.655H121.69V76.8998H122.655H152.577H187.061L186.682 77.3824L188.451 80.9216H181.373C182.338 82.584 183.69 87.26 181.373 92.6652H194.243L205.986 80.9216H213.227C207.139 87.1198 195.493 103.527 195.051 122.426H188.451L178.477 133.205H169.468V136.583H158.851L156.921 133.205H144.855V98.1349H142.603V133.205H140.994C143.89 112.613 134.398 95.2392 134.398 95.2392C134.398 95.2392 123.395 74.3581 108.337 69.3389L77.6109 71.7519H63.2933H62.1672V74.0041H61.0411V77.7042L58.3063 78.9912L58.2985 79.0197L47.0453 80.9216L32.7277 105.535H44.9539C43.4525 109.557 40.9 118.984 42.7017 124.518V141.57H24.0407V128.057L18.571 130.309V128.057L8.91873 130.309V128.057L2.323 124.518L0.0708008 116.313L0.875158 115.348ZM219.339 80.5999L219.821 80.2781C232.369 73.3607 252.317 69.3389 276.77 80.9216L284.813 85.9086L286.583 92.6652C289.371 95.7754 295.141 102.575 295.913 104.891L292.374 104.57C284.599 92.8261 261.712 74.5189 232.369 95.2392C227.704 98.6711 217.794 108.913 215.478 122.426H198.111C198.536 113.384 203.347 92.6255 219.339 80.5999ZM58.0906 79.7818L56.8584 82.3695H65.8672C76.6778 75.1624 93.9661 77.1143 101.259 78.9912C127.275 86.1068 136.195 110.463 138.037 126.4C138.054 126.327 138.075 126.287 138.099 126.287H139.868C141.541 116.506 135.739 101.835 132.629 95.7218C128.511 84.3964 114.719 74.3795 108.337 70.7867L77.6109 73.1998H63.2933V75.452H62.1672V78.3477L57.8237 80.7607L58.0906 79.7818ZM40.6104 127.413H26.132V139.961H40.6104V127.413ZM113.807 19.9513L113.992 20.9879L115.898 51.4821L119.586 52.2548L120.081 55.0213H132.79H135.203V19.9513H113.807ZM167.377 49.2299V52.7691H141.959V19.9513H167.377V49.2299ZM23.3972 70.465L23.7189 69.9824L41.2539 65.478H42.7017L34.6582 78.3477L23.3972 70.465ZM52.0318 68.8562L43.1838 70.7867C41.5108 71.1517 41.8433 70.1881 42.2186 69.6606L45.7578 64.3518L54.6057 62.904C55.7323 62.5823 55.9999 63.1721 55.8927 63.7083L52.0318 68.8562ZM56.1396 67.5049L63.4595 65.9627L66.6536 61.85C66.7423 61.4216 66.5209 60.9504 65.5889 61.2074L58.269 62.3641L55.3411 66.6053C55.0305 67.0267 54.7555 67.7965 56.1396 67.5049ZM73.2362 63.9515L66.9329 65.2624C65.7411 65.5103 65.9779 64.8559 66.2453 64.4977L68.7666 60.8927L75.0698 59.9095C75.8724 59.6911 76.063 60.0916 75.9866 60.4557L73.2362 63.9515ZM76.681 63.1662L82.2198 62.2725L84.7597 59.3057C84.8414 58.9879 84.6924 58.627 83.985 58.7862L78.46 59.3911L76.115 62.4638C75.8673 62.7683 75.6337 63.3353 76.681 63.1662ZM86.9418 59.0431L85.494 60.4909C82.2766 62.9362 89.3013 61.0808 93.2158 59.8475C95.6611 59.0753 94.8782 58.5605 94.1811 58.3996L86.9418 59.0431ZM152.577 91.0565H138.742V96.2044H152.577V91.0565ZM128.446 82.0477H149.038V84.6217H128.446V82.0477ZM167.377 122.266H154.829V128.057H167.377V122.266ZM162.551 104.891H175.099V119.692H162.551V104.891ZM188.29 63.0649H114.933V64.9953H188.29V63.0649Z" fill="#A0A1A2"/>
<path d="M117.325 21.2383H172.021V23.4905H117.325V21.2383Z" fill="#A0A1A2"/>
</svg>

<svg width="299" height="170" fill="none" xmlns="http://www.w3.org/2000/svg"><path d="M101.624 125.442c0 6.646-5.388 12.034-12.034 12.034-6.645 0-12.033-5.388-12.033-12.034 0-6.645 5.388-12.033 12.033-12.033 6.646 0 12.034 5.388 12.034 12.033z" fill="#A0A1A2"/><path fill-rule="evenodd" clip-rule="evenodd" d="M89.224 153.52c15.306 0 27.713-12.408 27.713-27.713 0-15.306-12.407-27.713-27.713-27.713-15.305 0-27.713 12.407-27.713 27.713 0 15.305 12.408 27.713 27.713 27.713zm0 16.044c24.167 0 43.757-19.591 43.757-43.757 0-24.166-19.59-43.757-43.757-43.757-24.166 0-43.757 19.591-43.757 43.757 0 24.166 19.591 43.757 43.757 43.757z" fill="#A0A1A2"/><path d="M269.945 129.985c0 5.962-4.833 10.794-10.795 10.794-5.961 0-10.794-4.832-10.794-10.794 0-5.962 4.833-10.795 10.794-10.795 5.962 0 10.795 4.833 10.795 10.795z" fill="#A0A1A2"/><path fill-rule="evenodd" clip-rule="evenodd" d="M258.82 155.17c13.729 0 24.86-11.13 24.86-24.86 0-13.73-11.131-24.86-24.86-24.86-13.73 0-24.86 11.13-24.86 24.86 0 13.73 11.13 24.86 24.86 24.86zm0 14.393c21.678 0 39.252-17.574 39.252-39.253 0-21.678-17.574-39.252-39.252-39.252-21.679 0-39.253 17.574-39.253 39.252 0 21.679 17.574 39.253 39.253 39.253z" fill="#A0A1A2"/><path d="M54.77 82.53l2.413 1.609h8.366c-3.733.515-11.53 10.403-14.962 15.283h-5.952c-2.059 0-2.895-1.287-3.056-1.93L49.46 84.46l5.31-1.93zm-7.405 18.02h-7.4l-2.574 3.7h7.722l2.252-3.7zm57.736-76.095l8.847 2.252.483 1.448-8.526-2.252-1.126 1.126 4.343 13.996h-1.608l-4.505-14.318 2.092-2.252z" fill="#A0A1A2"/><path fill-rule="evenodd" clip-rule="evenodd" d="M.875 115.348l9.492-3.056v-6.757l.965-.644-.251-2.02 1.699 1.699.804 1.126 5.63-1.126 5.31-11.261L9.24 75.935H7.793l.643 4.021h2.413L22.432 93.31l-3.861 9.33-4.344.805-1.447-2.413h-1.928l-3.22-25.9L6.345 73.2l1.287-4.505c14.264-5.362 55.018-16.087 103.923-16.087v8.044h2.574l-2.574-27.51-3.539-11.421v-4.344h61.613v-.965h-61.613v-4.665c7.346-.965 29.954-2.317 61.613 0V5.634l-2.574-1.93V.807h14.318v2.895l-2.896 1.93v6.114h6.596v3.86h-6.596v37.001h1.287v3.379l8.687 7.078V75.13l-.379.483H121.69V76.9h65.371l-.379.482 1.769 3.54h-7.078c.965 1.662 2.317 6.338 0 11.743h12.87l11.743-11.743h7.241c-6.088 6.198-17.734 22.605-18.176 41.504h-6.6l-9.974 10.779h-9.009v3.378h-10.617l-1.93-3.378h-12.066v-35.07h-2.252v35.07h-1.609c2.896-20.592-6.596-37.966-6.596-37.966s-11.003-20.88-26.061-25.9l-30.726 2.413H62.167v2.252h-1.126v3.7l-2.735 1.287-.008.029-11.253 1.902-14.317 24.613h12.226c-1.502 4.022-4.054 13.449-2.252 18.983v17.052H24.04v-13.513l-5.47 2.252v-2.252l-9.652 2.252v-2.252l-6.596-3.539-2.252-8.205.804-.965zM219.34 80.6l.482-.322c12.548-6.917 32.496-10.94 56.949.644l8.043 4.987 1.77 6.756c2.788 3.11 8.558 9.91 9.33 12.226l-3.539-.321c-7.775-11.744-30.662-30.051-60.005-9.33-4.665 3.431-14.575 13.673-16.891 27.186h-17.367c.425-9.042 5.236-29.8 21.228-41.826zm-161.248-.818l-1.233 2.588h9.01c10.81-7.208 28.098-5.256 35.391-3.379 26.016 7.116 34.936 31.472 36.778 47.409.017-.073.038-.113.062-.113h1.769c1.673-9.781-4.129-24.452-7.239-30.565-4.118-11.326-17.91-21.343-24.292-24.935L77.611 73.2H63.293v2.252h-1.126v2.896l-4.343 2.413.267-.98zm-17.48 47.631H26.131v12.548H40.61v-12.548zm73.196-107.462l.185 1.037 1.906 30.494 3.688.773.495 2.766h15.122v-35.07h-21.396zm53.57 29.279v3.54H141.96V19.95h25.418v29.28zM23.397 70.465l.322-.483 17.535-4.504h1.448l-8.044 12.87-11.26-7.883zm28.635-1.609l-8.848 1.93c-1.673.366-1.34-.598-.965-1.125l3.539-5.31 8.848-1.447c1.126-.322 1.394.268 1.287.804l-3.861 5.148zm4.108-1.351l7.32-1.542 3.194-4.113c.088-.428-.133-.9-1.065-.643l-7.32 1.157-2.928 4.241c-.31.422-.586 1.191.799.9zm17.096-3.553l-6.303 1.31c-1.192.248-.955-.406-.688-.764l2.522-3.605 6.303-.983c.802-.219.993.182.917.546l-2.75 3.495zm3.445-.786l5.539-.893 2.54-2.967c.081-.318-.068-.679-.775-.52l-5.525.605-2.345 3.073c-.248.304-.481.871.566.702zm10.26-4.123l-1.447 1.448c-3.217 2.445 3.807.59 7.722-.644 2.445-.772 1.662-1.287.965-1.447l-7.24.643zm65.636 32.014h-13.835v5.147h13.835v-5.147zm-24.131-9.01h20.592v2.575h-20.592v-2.574zm38.931 40.219h-12.548v5.791h12.548v-5.791zm-4.826-17.375h12.548v14.801h-12.548v-14.801zm25.739-41.826h-73.357v1.93h73.357v-1.93z" fill="#A0A1A2"/><path d="M117.325 21.238h54.696v2.253h-54.696v-2.253z" fill="#A0A1A2"/></svg>
